X:106
T:Sláinte
M:2/4
L:1/8
C:© Paul Gitlitz 2006
R:Polka
B:Anna's Smile
N:Where I co-hosted a Saturday Session.
K:G
"G"Gd Bd|"D"Ad Bd|"Em"ed Bd|"D"AG ED|!
"G"Gd Bd|"D"Ad Bd|"G"gd BA|G>G "D"DE:|!
|:"G"GD ED|GA BD|"D"dD cD|BD AB|!
"G"GD ED|GA BG|"D"dB AB|1"G"G>G DE:|"G"G4|]
